X:1
T:The Vacant Chair, 87.87 D
T:The Vacant Chair, 87.87 D
T:George Frederick Root, 1862
T:Public Domain Courtesy of the Cyber Hymnal™
C:George Frederick Root, 1862
Z:Public Domain
Z:Courtesy of the Cyber Hymnal™
%%score ( 1 2 ) ( 3 4 )
L:1/8
Q:1/4=90
M:3/4
K:Ab
V:1 treble 
V:2 treble 
V:3 bass 
V:4 bass 
V:1
 [DE]>[DE] | [CE]3 [CE] [DF][CE] | [CE] [CA]3 [CE]>[CE] | [DE]3 [DE] [DF][DE] | [DB]4 [DE]>[DE] | %5
 [Cc]3 [CB] [CA][CG] | [DG] [DF]3 [Fc]>[FB] | [EA]3 [EG] [DF][DG] | [CA]4 [EA]>[EA] | %9
 [GB]3 [GB] [FA][=DF] | [EG] [GB]3 [EG]>[Ge] | [A=d]3 [Ac] [GB][FA] | [EG]4 [EB]>[EB] | %13
 [=DB]3 [DB] [DA][DF] | [EG] [GB]3 [Ge]>[Ge] | [F=d]3 [=DB] [FA][DF] | E4 |] %17
V:2
 x2 | x6 | x6 | x6 | x6 | x6 | x6 | x6 | x6 | x6 | x6 | x6 | x6 | x6 | x6 | x6 | E4 |] %17
V:3
 [E,G,]>[E,G,] | [A,,A,]3 [A,,A,] [A,,A,][A,,A,] | [A,,A,] [A,,A,]3 [A,,A,]>[A,,A,] | %3
 [E,G,]3 [E,G,] [E,A,][E,G,] | [E,G,]4 [E,G,]>[E,G,] | [A,,A,]3 [A,,A,] [A,,A,][A,,A,] | %6
 [D,A,] [D,A,]3 [D,A,]>[D,B,] | [E,C]3 [E,B,] [E,A,][E,B,] | [A,,A,]4 [A,C]>[A,C] | %9
 [E,E]3 [E,E] [B,,=D][B,,B,] | [E,B,] [E,E]3 [E,B,]>[E,B,] | B,3 [B,,=D] [B,,D][=D,B,] | %12
 [E,B,]4 [E,G,]>[E,G,] | [B,,F,]3 [B,,F,] [B,,B,][B,,B,] | [E,B,] [E,E]3 [E,B,]>[E,B,] | %15
 B,3 [B,,B,] [B,,B,][B,,A,] | [E,G,]4 |] %17
V:4
 x2 | x6 | x6 | x6 | x6 | x6 | x6 | x6 | x6 | x6 | x6 | B,3 x3 | x6 | x6 | x6 | B,3 x3 | x4 |] %17

